images/3233075.svg

<?xml version="1.0" encoding="UTF-8"?>
<svg xmlns="http://www.w3.org/2000/svg" xmlns:xlink="http://www.w3.org/1999/xlink" width="300pt" height="300pt" viewBox="0 0 300 300" version="1.1">
<defs>
<g>
<symbol overflow="visible" id="glyph0-0">
<path style="stroke:none;" d="M 0.796875 2.828125 L 0.796875 -11.28125 L 8.796875 -11.28125 L 8.796875 2.828125 Z M 1.703125 1.9375 L 7.90625 1.9375 L 7.90625 -10.390625 L 1.703125 -10.390625 Z M 1.703125 1.9375 "/>
</symbol>
<symbol overflow="visible" id="glyph0-1">
<path style="stroke:none;" d="M 1.578125 -11.671875 L 3.703125 -11.671875 L 8.875 -1.90625 L 8.875 -11.671875 L 10.40625 -11.671875 L 10.40625 0 L 8.28125 0 L 3.109375 -9.765625 L 3.109375 0 L 1.578125 0 Z M 1.578125 -11.671875 "/>
</symbol>
<symbol overflow="visible" id="glyph0-2">
<path style="stroke:none;" d="M 1.578125 -11.671875 L 3.15625 -11.671875 L 3.15625 -6.890625 L 8.890625 -6.890625 L 8.890625 -11.671875 L 10.46875 -11.671875 L 10.46875 0 L 8.890625 0 L 8.890625 -5.5625 L 3.15625 -5.5625 L 3.15625 0 L 1.578125 0 Z M 1.578125 -11.671875 "/>
</symbol>
</g>
</defs>
<g id="surface40249">
<rect x="0" y="0" width="300" height="300" style="fill:rgb(100%,100%,100%);fill-opacity:1;stroke:none;"/>
<path style="fill:none;stroke-width:1.2;stroke-linecap:butt;stroke-linejoin:miter;stroke:rgb(0%,0%,0%);stroke-opacity:1;stroke-miterlimit:10;" d="M 232.480469 51.761719 L 237.097656 70.320312 "/>
<path style="fill:none;stroke-width:1.2;stroke-linecap:butt;stroke-linejoin:miter;stroke:rgb(0%,0%,100%);stroke-opacity:1;stroke-miterlimit:10;" d="M 237.097656 70.320312 L 241.71875 88.878906 "/>
<path style="fill:none;stroke-width:1.2;stroke-linecap:butt;stroke-linejoin:miter;stroke:rgb(0%,0%,100%);stroke-opacity:1;stroke-miterlimit:10;" d="M 241.71875 88.878906 L 227.957031 102.160156 "/>
<path style="fill:none;stroke-width:1.2;stroke-linecap:butt;stroke-linejoin:miter;stroke:rgb(0%,0%,0%);stroke-opacity:1;stroke-miterlimit:10;" d="M 227.957031 102.160156 L 214.191406 115.4375 "/>
<path style=" stroke:none;fill-rule:nonzero;fill:rgb(100%,100%,100%);fill-opacity:1;" d="M 229.71875 79.378906 L 253.71875 79.378906 L 253.71875 98.378906 L 229.71875 98.378906 Z M 229.71875 79.378906 "/>
<g style="fill:rgb(0%,0%,100%);fill-opacity:1;">
  <use xlink:href="#glyph0-1" x="229.71875" y="94.230469"/>
  <use xlink:href="#glyph0-2" x="241.6875" y="94.230469"/>
</g>
<path style="fill:none;stroke-width:1.2;stroke-linecap:butt;stroke-linejoin:miter;stroke:rgb(0%,0%,0%);stroke-opacity:1;stroke-miterlimit:10;" d="M 214.191406 115.4375 L 195.8125 110.160156 "/>
<path style="fill:none;stroke-width:1.2;stroke-linecap:butt;stroke-linejoin:miter;stroke:rgb(0%,0%,100%);stroke-opacity:1;stroke-miterlimit:10;" d="M 195.8125 110.160156 L 177.429688 104.882812 "/>
<path style="fill:none;stroke-width:1.2;stroke-linecap:butt;stroke-linejoin:miter;stroke:rgb(0%,0%,0%);stroke-opacity:1;stroke-miterlimit:10;" d="M 208.03125 123.035156 L 193.328125 118.808594 "/>
<path style="fill:none;stroke-width:1.2;stroke-linecap:butt;stroke-linejoin:miter;stroke:rgb(0%,0%,100%);stroke-opacity:1;stroke-miterlimit:10;" d="M 193.328125 118.808594 L 178.621094 114.585938 "/>
<path style="fill:none;stroke-width:1.2;stroke-linecap:butt;stroke-linejoin:miter;stroke:rgb(0%,0%,0%);stroke-opacity:1;stroke-miterlimit:10;" d="M 223.433594 152.554688 L 214.191406 115.4375 "/>
<path style="fill:none;stroke-width:1.2;stroke-linecap:butt;stroke-linejoin:miter;stroke:rgb(0%,0%,100%);stroke-opacity:1;stroke-miterlimit:10;" d="M 177.429688 104.882812 L 163.667969 118.160156 "/>
<path style="fill:none;stroke-width:1.2;stroke-linecap:butt;stroke-linejoin:miter;stroke:rgb(0%,0%,0%);stroke-opacity:1;stroke-miterlimit:10;" d="M 163.667969 118.160156 L 149.902344 131.441406 "/>
<path style=" stroke:none;fill-rule:nonzero;fill:rgb(100%,100%,100%);fill-opacity:1;" d="M 171.429688 95.382812 L 183.429688 95.382812 L 183.429688 114.382812 L 171.429688 114.382812 Z M 171.429688 95.382812 "/>
<g style="fill:rgb(0%,0%,100%);fill-opacity:1;">
  <use xlink:href="#glyph0-1" x="171.429688" y="110.234375"/>
</g>
<path style="fill:none;stroke-width:1.2;stroke-linecap:butt;stroke-linejoin:miter;stroke:rgb(0%,0%,0%);stroke-opacity:1;stroke-miterlimit:10;" d="M 149.902344 131.441406 L 154.523438 150 "/>
<path style="fill:none;stroke-width:1.2;stroke-linecap:butt;stroke-linejoin:miter;stroke:rgb(0%,0%,100%);stroke-opacity:1;stroke-miterlimit:10;" d="M 154.523438 150 L 159.144531 168.558594 "/>
<path style="fill:none;stroke-width:1.2;stroke-linecap:butt;stroke-linejoin:miter;stroke:rgb(0%,0%,0%);stroke-opacity:1;stroke-miterlimit:10;" d="M 159.5625 132.980469 L 163.257812 147.824219 "/>
<path style="fill:none;stroke-width:1.2;stroke-linecap:butt;stroke-linejoin:miter;stroke:rgb(0%,0%,100%);stroke-opacity:1;stroke-miterlimit:10;" d="M 163.257812 147.824219 L 166.953125 162.671875 "/>
<path style="fill:none;stroke-width:1.2;stroke-linecap:butt;stroke-linejoin:miter;stroke:rgb(0%,0%,0%);stroke-opacity:1;stroke-miterlimit:10;" d="M 149.902344 131.441406 L 113.140625 120.882812 "/>
<path style="fill:none;stroke-width:1.2;stroke-linecap:butt;stroke-linejoin:miter;stroke:rgb(0%,0%,100%);stroke-opacity:1;stroke-miterlimit:10;" d="M 159.144531 168.558594 L 177.523438 173.835938 "/>
<path style="fill:none;stroke-width:1.2;stroke-linecap:butt;stroke-linejoin:miter;stroke:rgb(0%,0%,0%);stroke-opacity:1;stroke-miterlimit:10;" d="M 177.523438 173.835938 L 195.90625 179.117188 "/>
<path style=" stroke:none;fill-rule:nonzero;fill:rgb(100%,100%,100%);fill-opacity:1;" d="M 153.144531 159.058594 L 165.144531 159.058594 L 165.144531 178.058594 L 153.144531 178.058594 Z M 153.144531 159.058594 "/>
<g style="fill:rgb(0%,0%,100%);fill-opacity:1;">
  <use xlink:href="#glyph0-1" x="153.144531" y="173.910156"/>
</g>
<path style="fill:none;stroke-width:1.2;stroke-linecap:butt;stroke-linejoin:miter;stroke:rgb(0%,0%,0%);stroke-opacity:1;stroke-miterlimit:10;" d="M 195.90625 179.117188 L 205.144531 216.234375 "/>
<path style="fill:none;stroke-width:1.2;stroke-linecap:butt;stroke-linejoin:miter;stroke:rgb(0%,0%,0%);stroke-opacity:1;stroke-miterlimit:10;" d="M 205.566406 180.652344 L 212.957031 210.347656 "/>
<path style="fill:none;stroke-width:1.2;stroke-linecap:butt;stroke-linejoin:miter;stroke:rgb(0%,0%,0%);stroke-opacity:1;stroke-miterlimit:10;" d="M 223.433594 152.554688 L 195.90625 179.117188 "/>
<path style="fill:none;stroke-width:1.2;stroke-linecap:butt;stroke-linejoin:miter;stroke:rgb(0%,0%,0%);stroke-opacity:1;stroke-miterlimit:10;" d="M 205.144531 216.234375 L 241.910156 226.789062 "/>
<path style="fill:none;stroke-width:1.2;stroke-linecap:butt;stroke-linejoin:miter;stroke:rgb(0%,0%,0%);stroke-opacity:1;stroke-miterlimit:10;" d="M 241.910156 226.789062 L 269.433594 200.230469 "/>
<path style="fill:none;stroke-width:1.2;stroke-linecap:butt;stroke-linejoin:miter;stroke:rgb(0%,0%,0%);stroke-opacity:1;stroke-miterlimit:10;" d="M 238.414062 217.660156 L 260.433594 196.410156 "/>
<path style="fill:none;stroke-width:1.2;stroke-linecap:butt;stroke-linejoin:miter;stroke:rgb(0%,0%,0%);stroke-opacity:1;stroke-miterlimit:10;" d="M 269.433594 200.230469 L 260.195312 163.113281 "/>
<path style="fill:none;stroke-width:1.2;stroke-linecap:butt;stroke-linejoin:miter;stroke:rgb(0%,0%,0%);stroke-opacity:1;stroke-miterlimit:10;" d="M 260.195312 163.113281 L 223.433594 152.554688 "/>
<path style="fill:none;stroke-width:1.2;stroke-linecap:butt;stroke-linejoin:miter;stroke:rgb(0%,0%,0%);stroke-opacity:1;stroke-miterlimit:10;" d="M 254.035156 170.707031 L 224.625 162.261719 "/>
<path style="fill:none;stroke-width:1.2;stroke-linecap:butt;stroke-linejoin:miter;stroke:rgb(0%,0%,0%);stroke-opacity:1;stroke-miterlimit:10;" d="M 113.140625 120.882812 L 103.902344 83.765625 "/>
<path style="fill:none;stroke-width:1.2;stroke-linecap:butt;stroke-linejoin:miter;stroke:rgb(0%,0%,0%);stroke-opacity:1;stroke-miterlimit:10;" d="M 103.480469 119.347656 L 96.089844 89.652344 "/>
<path style="fill:none;stroke-width:1.2;stroke-linecap:butt;stroke-linejoin:miter;stroke:rgb(0%,0%,0%);stroke-opacity:1;stroke-miterlimit:10;" d="M 85.613281 147.445312 L 113.140625 120.882812 "/>
<path style="fill:none;stroke-width:1.2;stroke-linecap:butt;stroke-linejoin:miter;stroke:rgb(0%,0%,0%);stroke-opacity:1;stroke-miterlimit:10;" d="M 103.902344 83.765625 L 67.136719 73.210938 "/>
<path style="fill:none;stroke-width:1.2;stroke-linecap:butt;stroke-linejoin:miter;stroke:rgb(0%,0%,0%);stroke-opacity:1;stroke-miterlimit:10;" d="M 67.136719 73.210938 L 39.613281 99.769531 "/>
<path style="fill:none;stroke-width:1.2;stroke-linecap:butt;stroke-linejoin:miter;stroke:rgb(0%,0%,0%);stroke-opacity:1;stroke-miterlimit:10;" d="M 70.632812 82.339844 L 48.613281 103.589844 "/>
<path style="fill:none;stroke-width:1.2;stroke-linecap:butt;stroke-linejoin:miter;stroke:rgb(0%,0%,0%);stroke-opacity:1;stroke-miterlimit:10;" d="M 39.613281 99.769531 L 48.851562 136.886719 "/>
<path style="fill:none;stroke-width:1.2;stroke-linecap:butt;stroke-linejoin:miter;stroke:rgb(0%,0%,0%);stroke-opacity:1;stroke-miterlimit:10;" d="M 48.851562 136.886719 L 85.613281 147.445312 "/>
<path style="fill:none;stroke-width:1.2;stroke-linecap:butt;stroke-linejoin:miter;stroke:rgb(0%,0%,0%);stroke-opacity:1;stroke-miterlimit:10;" d="M 55.011719 129.292969 L 84.421875 137.738281 "/>
<path style="fill:none;stroke-width:1.2;stroke-linecap:butt;stroke-linejoin:miter;stroke:rgb(0%,0%,0%);stroke-opacity:1;stroke-miterlimit:10;" d="M 85.613281 147.445312 L 94.855469 184.5625 "/>
<path style="fill:none;stroke-width:1.2;stroke-linecap:butt;stroke-linejoin:miter;stroke:rgb(0%,0%,0%);stroke-opacity:1;stroke-miterlimit:10;" d="M 94.855469 184.5625 L 81.089844 197.839844 "/>
<path style="fill:none;stroke-width:1.2;stroke-linecap:butt;stroke-linejoin:miter;stroke:rgb(0%,0%,100%);stroke-opacity:1;stroke-miterlimit:10;" d="M 81.089844 197.839844 L 67.328125 211.121094 "/>
<path style="fill:none;stroke-width:1.2;stroke-linecap:butt;stroke-linejoin:miter;stroke:rgb(0%,0%,100%);stroke-opacity:1;stroke-miterlimit:10;" d="M 67.328125 211.121094 L 71.949219 229.679688 "/>
<path style="fill:none;stroke-width:1.2;stroke-linecap:butt;stroke-linejoin:miter;stroke:rgb(0%,0%,0%);stroke-opacity:1;stroke-miterlimit:10;" d="M 71.949219 229.679688 L 76.566406 248.238281 "/>
<path style="fill:none;stroke-width:1.2;stroke-linecap:butt;stroke-linejoin:miter;stroke:rgb(0%,0%,100%);stroke-opacity:1;stroke-miterlimit:10;" d="M 67.328125 211.121094 L 48.945312 205.84375 "/>
<path style="fill:none;stroke-width:1.2;stroke-linecap:butt;stroke-linejoin:miter;stroke:rgb(0%,0%,0%);stroke-opacity:1;stroke-miterlimit:10;" d="M 48.945312 205.84375 L 30.566406 200.5625 "/>
<path style=" stroke:none;fill-rule:nonzero;fill:rgb(100%,100%,100%);fill-opacity:1;" d="M 61.328125 201.621094 L 73.328125 201.621094 L 73.328125 220.621094 L 61.328125 220.621094 Z M 61.328125 201.621094 "/>
<g style="fill:rgb(0%,0%,100%);fill-opacity:1;">
  <use xlink:href="#glyph0-1" x="61.328125" y="216.472656"/>
</g>
</g>
</svg>

<svg xmlns="http://www.w3.org/2000/svg" xmlns:xlink="http://www.w3.org/1999/xlink" width="300pt" height="300pt" viewBox="0 0 300 300"><defs><symbol overflow="visible"><path d="M.797 2.828v-14.11h8V2.83zm.906-.89h6.203v-12.33H1.703zm0 0"/></symbol><symbol overflow="visible" id="a"><path d="M1.578-11.672h2.125l5.172 9.766v-9.766h1.53V0H8.282L3.11-9.766V0H1.577zm0 0"/></symbol><symbol overflow="visible" id="b"><path d="M1.578-11.672h1.578v4.78H8.89v-4.78h1.58V0H8.89v-5.563H3.157V0H1.578zm0 0"/></symbol></defs><g><path fill="#fff" d="M0 0h300v300H0z"/><path d="M232.48 51.762l4.618 18.558" stroke-width="1.2" stroke="#000" stroke-miterlimit="10" fill="none"/><path d="M237.098 70.32l4.62 18.56M241.72 88.88l-13.763 13.28" stroke-width="1.2" stroke="#00f" stroke-miterlimit="10" fill="none"/><path d="M227.957 102.16l-13.766 13.278" stroke-width="1.2" stroke="#000" stroke-miterlimit="10" fill="none"/><path d="M229.72 79.38h24v19h-24zm0 0" fill="#fff"/><g fill="#00f"><use xlink:href="#a" x="229.719" y="94.23"/><use xlink:href="#b" x="241.688" y="94.23"/></g><path d="M214.19 115.438l-18.377-5.278" stroke-width="1.2" stroke="#000" stroke-miterlimit="10" fill="none"/><path d="M195.813 110.16l-18.383-5.277" stroke-width="1.2" stroke="#00f" stroke-miterlimit="10" fill="none"/><path d="M208.03 123.035l-14.702-4.226" stroke-width="1.2" stroke="#000" stroke-miterlimit="10" fill="none"/><path d="M193.328 118.81l-14.707-4.224" stroke-width="1.2" stroke="#00f" stroke-miterlimit="10" fill="none"/><path d="M223.434 152.555l-9.243-37.118" stroke-width="1.2" stroke="#000" stroke-miterlimit="10" fill="none"/><path d="M177.43 104.883l-13.762 13.277" stroke-width="1.2" stroke="#00f" stroke-miterlimit="10" fill="none"/><path d="M163.668 118.16l-13.766 13.28" stroke-width="1.2" stroke="#000" stroke-miterlimit="10" fill="none"/><path d="M171.43 95.383h12v19h-12zm0 0" fill="#fff"/><use xlink:href="#a" x="171.43" y="110.234" fill="#00f"/><path d="M149.902 131.44l4.62 18.56" stroke-width="1.2" stroke="#000" stroke-miterlimit="10" fill="none"/><path d="M154.523 150l4.622 18.56" stroke-width="1.2" stroke="#00f" stroke-miterlimit="10" fill="none"/><path d="M159.563 132.98l3.695 14.844" stroke-width="1.2" stroke="#000" stroke-miterlimit="10" fill="none"/><path d="M163.258 147.824l3.695 14.848" stroke-width="1.2" stroke="#00f" stroke-miterlimit="10" fill="none"/><path d="M149.902 131.44l-36.76-10.557" stroke-width="1.2" stroke="#000" stroke-miterlimit="10" fill="none"/><path d="M159.145 168.56l18.378 5.276" stroke-width="1.2" stroke="#00f" stroke-miterlimit="10" fill="none"/><path d="M177.523 173.836l18.383 5.28" stroke-width="1.2" stroke="#000" stroke-miterlimit="10" fill="none"/><path d="M153.145 159.06h12v19h-12zm0 0" fill="#fff"/><use xlink:href="#a" x="153.145" y="173.91" fill="#00f"/><path d="M195.906 179.117l9.24 37.117M205.566 180.652l7.39 29.696M223.434 152.555l-27.528 26.562M205.145 216.234l36.765 10.555M241.91 226.79l27.524-26.56M238.414 217.66l22.02-21.25M269.434 200.23l-9.24-37.117M260.195 163.113l-36.76-10.558M254.035 170.707l-29.41-8.445M113.14 120.883l-9.238-37.117M103.48 119.348l-7.39-29.696M85.613 147.445l27.528-26.562M103.902 83.766L67.137 73.21M67.137 73.21L39.613 99.77M70.633 82.34l-22.02 21.25M39.613 99.77l9.24 37.117M48.852 136.887l36.76 10.558M55.012 129.293l29.41 8.445M85.613 147.445l9.242 37.118M94.855 184.563L81.09 197.84" stroke-width="1.2" stroke="#000" stroke-miterlimit="10" fill="none"/><path d="M81.09 197.84l-13.762 13.28M67.328 211.12l4.62 18.56" stroke-width="1.2" stroke="#00f" stroke-miterlimit="10" fill="none"/><path d="M71.95 229.68l4.616 18.558" stroke-width="1.2" stroke="#000" stroke-miterlimit="10" fill="none"/><path d="M67.328 211.12l-18.383-5.276" stroke-width="1.2" stroke="#00f" stroke-miterlimit="10" fill="none"/><path d="M48.945 205.844l-18.38-5.28" stroke-width="1.2" stroke="#000" stroke-miterlimit="10" fill="none"/><path d="M61.328 201.62h12v19h-12zm0 0" fill="#fff"/><use xlink:href="#a" x="61.328" y="216.473" fill="#00f"/></g></svg>
